!!! Melodie: eigene
!!! Typ: Lied
**kern	**silbe	**silbe	**silbe	**silbe	**silbe	**silbe	**silbe	**silbe	**silbe	**silbe	**silbe	**silbe
*clefG2	*lang:DE	*lang:DE	*lang:DE	*lang:DE	*lang:DE	*lang:DE	*lang:DE	*lang:DE	*lang:DE	*lang:DE	*lang:DE	*lang:DE
*M3/2	*	*	*	*	*	*	*	*	*	*	*	*
4c	Der	Wie	Der	Er	Er	Er	Er	Und	Sein	Wer	Die	Der
=	=	=	=	=	=	=	=	=	=	=	=	=
2e	Tag	laut	Mit#	seg#	seg#	seg#	seg#	den#	gu#	sich	Hän#	Tag
2d	ist	dich	#tag	#net	#net	#net	#net,	#noch	#ter	nach	#de,	ist
4c	sei#	auch	kommt.	dich	dir	dei#	wenn	bleibt	Schatz	sei#	die	sei#
4d	#ner	der	So	in	auch	#ner	du	er	ist	#nem	zum	#ner
=	=	=	=	=	=	=	=	=	=	=	=	=
4e	Hö#	Tag	tritt	Dorf	Korb	Bäu#	kommst	ohn’	auf#	Na#	Be#	Hö#
4f	#he	um#	zum	und	und	#me	und	Ver#	#ge#	#men	#ten	#he
2g	nah.	#gibt,	Mahl;	Stadt,	Krug	Frucht,	gehst;	#druss	#tan,	nennt,	ruh’n,	nah.
4r	%	%	%	%	%	%	%	%	%	%	%	%
4g	Nun	jetzt	denk	in	und	dein	er	zum	des	hat	die	Nun
=	=	=	=	=	=	=	=	=	=	=	=	=
*M2/2	*	*	*	*	*	*	*	*	*	*	*	*
4f	blick	hal#	an	Kel#	Tru#	Kind,	seg#	Seg#	Him#	er	macht	stär#
4g	zum	#te	den	#ler,	#he,	dein	#net,	#nen	#mels	zu#	er	#ke
4a	Höch#	lau#	Tisch	Kam#	Trog	Land,	was	stets	ew#	#vor	stark	Seel’
4b	#sten	#schend	des	#mer,	und	dein	du	be#	#'ges	er#	zur	und
=	=	=	=	=	=	=	=	=	=	=	=	=
2cc	auf,	still,	Herr’n.	Feld.	Schrein.	Vieh.	planst.	#reit,	Reich.	#kannt.	Tat.	Leib,
4r	%	%	%	%	%	%	%	%	%	%	%	%
4cc	der	weil	Er	Was	Ihm	Er	Er	gibt	Zu	Er	Und	dass,
=	=	=	=	=	=	=	=	=	=	=	=	=
*M3/2	*	*	*	*	*	*	*	*	*	*	*	*
2b	schüt#	er,	weiß	dir	kann	seg#	weiß	auch	seg#	seg#	was	was
2a	#zend	der	die	der	es	#net,	auch,	des	#nen	#net,	der	an
4g	auf	dich	Be#	Herr	kei#	was	dass	Re#	hebt	wel#	Be#	Se#
4e	dich	be#	#ter	ge#	#nen	den	du’s	#gens	er	#che	#ter	#gen
=	=	=	=	=	=	=	=	=	=	=	=	=
4a	nie#	#schenkt	ü#	#seg#	Tag	Se#	nicht	mil#	täg#	Schuld	Hän#	er
4a	#der#	und	#ber#	#net	ge#	#gen	ver#	#den	#lich	auch	#de	er#
2g	#sah	liebt,	#all	hat,	#nug	sucht.	#stehst	Fluss,	an	trennt,	tun,	#sah,
4r	%	%	%	%	%	%	%	%	%	%	%	%
4f	in	die	und	bleibt	an	Die	und	wenn	und	die	ge#	dir
=	=	=	=	=	=	=	=	=	=	=	=	=
4e	je#	Ga#	kommt	fort#	Se#	Gna#	oft	Re#	bleibt	Wer#	#schieht	hier
4c	#des	#be	zu	#an	#gens#	#de	nicht	#gen	sich	#ke	nach	und
2d	Ta#	seg#	Gas#	wohl	#fül#	schlum#	ein#	an	im#	dei#	sei#	dort
2d	#ges	#nen	#te	be#	#le	#mert	#mal	der	#mer	#ner	#nem	ver#
=	=	=	=	=	=	=	=	=	=	=	=	=
2.c	Lauf.	will.	gern.	#stellt.	sein.	nie.	ahnst.	Zeit.	gleich.	Hand.	Rat.	#bleib.
==	==	==	==	==	==	==	==	==	==	==	==	==
*-	*-	*-	*-	*-	*-	*-	*-	*-	*-	*-	*-	*-
